images/sc2/LPAD.svg

<?xml version='1.0' encoding='utf-8'?>
<svg xmlns="http://www.w3.org/2000/svg" viewBox="247.474 406.764 347.816 352.93" width="115.939" height="117.643"><path d="M 481.9077 740.3238 C 480.1120 739.9788 444.2628 733.8120 402.2428 726.6199 C 360.2228 719.4278 320.1058 712.4384 313.0940 711.0879 C 298.1998 708.2192 286.9067 702.7613 279.9634 695.0758 C 273.4377 687.8527 267.6128 674.8199 266.8441 665.7228 C 266.3814 660.2460 269.5913 636.1375 278.7116 576.5915 C 297.3535 454.8785 297.0728 456.2166 306.5894 443.7170 C 311.3991 437.3997 324.1727 429.4303 332.4622 427.5752 C 340.9710 425.6710 345.4820 426.1709 399.6255 435.0174 C 507.9669 452.7194 545.1641 459.7218 551.9946 463.7009 C 559.0321 467.8006 566.2392 476.1402 570.5508 485.1727 C 576.3833 497.3913 575.6366 505.7890 560.4479 598.7932 C 543.8788 700.2503 542.5201 707.5225 538.7391 714.9839 C 534.5402 723.2701 525.9862 731.4690 516.5705 736.2323 C 509.7933 739.6607 507.0224 740.2751 496.9265 740.5875 C 490.4619 740.7875 483.7034 740.6689 481.9077 740.3238 Z " style="fill:#666666;stroke:#1a1a1a;stroke-width:7.404" /></svg>

<svg xmlns="http://www.w3.org/2000/svg" width="115.939" height="117.643" viewBox="247.474 406.764 347.816 352.93"><path d="M481.908 740.324c-1.796-.345-37.645-6.512-79.665-13.704s-82.137-14.182-89.149-15.532c-14.894-2.869-26.187-8.327-33.13-16.012-6.526-7.223-12.351-20.256-13.12-29.353-.463-5.477 2.747-29.585 11.868-89.131 18.642-121.714 18.36-120.375 27.877-132.875 4.81-6.317 17.584-14.287 25.873-16.142 8.509-1.904 13.02-1.404 67.164 7.442 108.34 17.702 145.538 24.705 152.369 28.684 7.037 4.1 14.244 12.44 18.556 21.472 5.832 12.218 5.086 20.616-10.103 113.62-16.57 101.457-17.928 108.73-21.709 116.19-4.199 8.287-12.753 16.486-22.168 21.25-6.778 3.428-9.549 4.042-19.645 4.355-6.464.2-13.223.08-15.018-.264Z" style="fill:#666;stroke:#1a1a1a;stroke-width:7.404"/></svg>
